X: 204
T: Ya Raya
O: Israel
C: Morocco 2000
F: http://www.youtube.com/watch?v=HwUC9oRB4VE
F: http://www.youtube.com/watch?v=1ZMi0NKPDCs
M: 4/4
L: 1/4
Q: 1/4=160
K: Dm
D/E/F/G/A/F/D2|DDAA|AAAA|AGFE|
G/F/E/D/E/z/G  |GGAB|dABG|FED2|D/^C/B,/C/Dz|



